X:439
T:St Patrick's An Dro
Z:Jack Campin, http://www.campin.me.uk/
F:Jack Campin's Nine-Note Tunebook
% last edit 03-02-2013
S:http://www.breizh-partitions.fr
M:4/4
L:1/8
Q:1/4=116
K:DMin
D/E/F/E/ DA   FDEA|G/A/G/F/ E>D  FD       E2 |
D/E/F/E/ DA   FDEA|G/A/G/F/ ED   F/D/E/F/ D2:|
D/E/F/G/ A>A  GcAF|D/E/F/A/ G>A  G/A/G/F/ E2 |
D/E/F/G/ A>A  GcAF|D/E/F/A/ G>E  F/E/E/C/ D2:|

